src/headshot.svg

<svg xmlns="http://www.w3.org/2000/svg" class="dibsvg-svg dibsvg-headshot" viewBox="0 0 100 100">
    <path d="M91.8981087,88.4761032 C91.7348547,88.5307054 91.5832218,88.7399061 91.4917695,89.1069528 C91.4291426,89.3583081 91.5522744,89.6465876 91.8170124,89.8270719 L100,96.6265366 L100,97.1881765 L99.8803681,97.3339354 L98.0978954,99.5018399 C98.0736446,99.5260479 98.0736446,99.5260479 98.0093344,99.5785785 C97.9668032,99.6096353 97.9668032,99.6096353 97.8991254,99.6474221 C97.6281562,99.7833651 97.3090957,99.6942945 97.1609369,99.4474947 L88.9884041,92.7349226 C88.8594819,92.6055642 88.6291932,92.5131371 88.4850756,92.5131371 C88.0948801,92.5131371 87.8233444,92.7272085 87.741573,93.1301928 L86.5054446,97.5953115 C86.475733,97.8132322 86.3441787,97.9883029 86.1593977,98.081006 C86.0500581,98.1358608 85.9521452,98.1522348 85.8623704,98.1522348 C85.7725957,98.1522348 85.6746828,98.1358608 85.5653432,98.081006 C85.4024404,97.9992791 85.2809063,97.8535346 85.2340523,97.6708499 L76.3456975,80.7132752 L76.3456975,80.2399921 L76.8460792,79.7379174 L95.3312163,85.3276294 C95.5448449,85.3594623 95.7163151,85.4905287 95.8076176,85.6737515 C95.8622874,85.783461 95.8786062,85.8817052 95.8786062,85.9717837 C95.8786062,86.3332716 95.7012672,86.5585716 95.3827478,86.6114026 L91.8981087,88.4761032 Z M73.2327963,71.1998747 C73.357687,71.4505013 73.2327963,71.8264411 72.9830149,71.9517544 L72.7332334,71.9517544 C72.483452,71.9517544 72.2336705,71.8264411 72.1087798,71.5758145 L70.4852004,67.3151629 C70.3603097,67.0645363 70.4852004,66.6885965 70.8598726,66.5632832 C71.1096541,66.4379699 71.4843262,66.5632832 71.6092169,66.9392231 L73.2327963,71.1998747 Z M77.1824653,70.9022556 C76.8077932,70.7769424 76.6829025,70.5263158 76.6829025,70.1503759 L77.4322468,65.764411 C77.5571375,65.3884712 77.8069189,65.2631579 78.1815911,65.2631579 C78.5562633,65.3884712 78.681154,65.6390977 78.681154,66.0150376 L77.9318097,70.4010025 C77.8069189,70.6516291 77.5571375,70.9022556 77.1824653,70.9022556 Z M81.0653391,72.5426278 C80.9404484,72.5426278 80.6906669,72.5426278 80.6906669,72.4173145 C80.4408855,72.166688 80.3159947,71.7907481 80.5657762,71.5401215 L83.4382628,68.0313496 C83.6880442,67.7807231 84.0627164,67.6554098 84.3124978,67.9060363 C84.5622792,68.1566629 84.68717,68.5326027 84.4373885,68.7832293 L81.564902,72.2920012 C81.4400112,72.4173145 81.1902298,72.5426278 81.0653391,72.5426278 Z M82.972484,76.4630326 C82.8475933,76.0870927 82.972484,75.7111529 83.4720469,75.7111529 L87.7183314,74.0820802 C87.9681129,73.9567669 88.342785,74.0820802 88.4676758,74.4580201 C88.5925665,74.7086466 88.4676758,75.0845865 88.0930036,75.2098997 L83.8467191,76.8389724 L83.5969377,76.8389724 C83.3471562,76.8389724 83.0973748,76.7136591 82.972484,76.4630326 Z M74.4348695,86.566416 C74.8095417,86.6917293 75.0593231,86.9423559 74.9344324,87.3182957 L74.185088,91.8295739 C74.185088,92.0802005 73.8104159,92.3308271 73.5606344,92.3308271 L73.4357437,92.3308271 C73.0610716,92.2055138 72.9361808,91.9548872 72.9361808,91.5789474 L73.6855252,87.0676692 C73.8104159,86.6917293 74.0601973,86.566416 74.4348695,86.566416 Z M69.7002835,85.5209091 C69.9500649,85.2702825 70.3247371,85.2702825 70.5745185,85.3955958 C70.8243,85.6462223 70.9491907,86.0221622 70.6994093,86.2727888 L67.8269227,89.7815607 C67.702032,89.906874 67.4522505,90.0321872 67.3273598,90.0321872 C67.2024691,90.0321872 67.0775784,90.0321872 66.9526876,89.906874 C66.7029062,89.6562474 66.5780155,89.2803076 66.8277969,89.029681 L69.7002835,85.5209091 Z M68.2371675,81.976817 C68.3620582,82.3527569 68.2371675,82.7286967 67.987386,82.7286967 L63.8659923,84.3577694 L63.6162108,84.3577694 C63.3664294,84.3577694 63.1166479,84.2324561 62.9917572,83.9818296 C62.8668665,83.731203 62.9917572,83.3552632 63.3664294,83.2299499 L67.4878232,81.6008772 C67.7376046,81.4755639 68.1122768,81.6008772 68.2371675,81.976817 Z M69.1135637,74.2970138 L65.7415143,71.4148083 C65.4917328,71.289495 65.3668421,70.7882418 65.4917328,70.5376153 C65.7415143,70.2869887 66.1161864,70.1616754 66.3659679,70.412302 L69.8629081,73.2945075 C70.1126895,73.5451341 70.2375802,73.9210739 69.9877988,74.1717005 C69.8629081,74.2970138 69.6131266,74.4223271 69.4882359,74.4223271 C69.3633452,74.4223271 69.2384545,74.4223271 69.1135637,74.2970138 Z M68.0654427,78.5463659 C67.940552,78.5463659 67.940552,78.5463659 68.0654427,78.5463659 L63.4444861,77.7944862 C63.0698139,77.6691729 62.9449232,77.4185464 62.9449232,77.0426065 C63.0698139,76.6666667 63.3195954,76.5413534 63.6942675,76.5413534 L68.1903335,77.2932331 C68.5650056,77.4185464 68.6898963,77.6691729 68.6898963,78.0451128 C68.6898963,78.2957393 68.3152242,78.5463659 68.0654427,78.5463659 Z M85.7497315,96.3932763 L86.7218136,92.8861085 C86.8945402,92.0195534 87.6036564,91.4605055 88.4850756,91.4605055 C88.9029661,91.4605055 89.4012067,91.660476 89.6914698,91.9554152 L97.6041952,98.4513679 L98.7992308,96.9953435 L91.1914898,90.6703565 C90.6133307,90.283613 90.3000023,89.5500397 90.4740104,88.8516522 C90.644234,88.1684542 91.0102433,87.6634886 91.4845348,87.5128594 L94.1622197,86.0735319 L77.7372897,81.1068049 L85.7497315,96.3932763 Z" class="dibsvg-headshot-head"/>
    <path d="M81.0848315,87.811575 L81.5850203,88.7626383 C72.9743614,95.7873328 61.9791413,100 50,100 C22.3857625,100 -3.55271368e-15,77.6142375 -3.55271368e-15,50 C-3.55271368e-15,22.3857625 22.3857625,3.55271368e-15 50,3.55271368e-15 C77.6142375,3.55271368e-15 100,22.3857625 100,50 C100,62.7627766 95.2181481,74.4086919 87.3483335,83.2438568 L86.2344111,82.9081541 C94.133264,74.2160677 98.9473684,62.670231 98.9473684,50 C98.9473684,22.9671149 77.0328851,1.05263158 50,1.05263158 C22.9671149,1.05263158 1.05263158,22.9671149 1.05263158,50 C1.05263158,77.0328851 22.9671149,98.9473684 50,98.9473684 C61.8034915,98.9473684 72.6311611,94.7693782 81.0848315,87.811575 Z M58.0365136,54.754905 C58.195174,55.0718955 58.4231018,55.3882287 58.7370335,55.6866021 C59.0829936,56.0154167 59.5132943,56.3017759 60.0460522,56.5353302 L64.7149573,58.6505293 L71.641841,61.4350255 C71.7153027,61.4651199 71.809626,61.5066119 71.9367196,61.5686526 C72.1384097,61.6671076 72.3567547,61.7864188 72.5886303,61.9290466 C73.2343567,62.3262361 73.8747023,62.8344756 74.4724289,63.4676798 C75.8027331,64.8769432 76.7387207,66.705484 77.1039696,68.9837502 L77.1312009,69.1495017 L77.6969929,76.89599 L75.8886923,76.89599 C75.8261339,76.8941498 75.4750378,76.8913333 75.3226297,76.891317 C74.9870355,76.891281 74.4961995,76.8924205 73.7566254,76.8948451 C73.5395491,76.8955567 69.4833776,76.9103438 67.8372736,76.9155802 C62.9477876,76.9311343 58.1644821,76.9398496 52.9137953,76.9398496 L52.9137953,75.887218 C58.1632825,75.887218 62.9455033,75.8785047 67.8339476,75.862954 C69.479743,75.8577185 73.5358463,75.8429317 73.7531977,75.8422191 C75.2699552,75.8372466 75.7206828,75.8359786 75.8892,75.8433584 L76.5684609,75.8433584 L76.0921735,69.2831671 C75.7374253,67.0876016 74.8997163,65.4510575 73.7107677,64.1915397 C73.1794272,63.6286618 72.6109138,63.1774353 72.0403369,62.8264706 C71.8382758,62.7021819 71.6496994,62.5991372 71.4777692,62.5152095 C71.3728267,62.4639819 71.2982469,62.4311748 71.2425197,62.408368 L64.3040811,59.6188051 L59.620268,57.4973443 C58.9818611,57.2175257 58.4495842,56.8633029 58.0155861,56.4508135 C57.6097435,56.0650841 57.3103829,55.6496117 57.099018,55.2273218 C56.9693882,54.968332 56.8464012,54.6178221 56.8971837,54.7169 L56.839826,54.5432532 C56.7023086,54.126126 56.7023086,53.7953239 56.7635764,53.4947789 L56.8265541,53.3313668 C56.8810828,53.2393014 56.9473452,53.1472648 57.027435,53.0486576 C57.0826988,52.9806164 57.1419765,52.9124256 57.2173699,52.8289251 C57.2084658,52.8387867 57.3874242,52.6424399 57.4180927,52.6078101 C57.6240567,52.3583918 57.6350637,52.3453858 57.7183204,52.2607273 C59.2497961,50.4015135 60.3563828,48.2654339 61.1025525,46.0227191 C61.5725933,44.6099473 61.832115,43.3585025 61.907312,42.6458588 C62.6898742,37.0735758 61.9569914,32.9443614 60.1609588,30.0270735 C59.5162796,28.9799239 58.769704,28.1532657 57.9733852,27.5196744 C57.4498296,27.1031073 56.9911169,26.8333405 56.6056703,26.6611734 C54.4829869,25.5956312 52.2493759,25.0526316 49.9676232,25.0526316 C46.9851297,25.0526316 44.2443283,25.9790813 43.1465561,26.7059823 C40.2714806,28.4508901 38.4710932,31.7357889 37.9419154,36.2581181 C37.7221387,38.0981284 37.7368136,39.909489 37.8937681,41.5407387 C37.9321245,41.9393823 37.9670203,42.2129535 38.0058795,42.4747692 C38.3413235,44.9704829 39.1839357,47.3192971 40.3543719,49.4522916 C41.073661,50.7631189 41.8037404,51.7881701 42.2117146,52.25457 C42.607559,52.703514 42.6785012,52.787987 42.7756104,52.933155 C42.8803638,53.1030301 42.9086404,53.1552916 43.0140392,53.3618808 C43.1025343,53.5851356 43.12117,54.0754561 43.0602622,54.4640391 C42.8421602,55.4138044 42.3578322,56.1675387 41.7076821,56.7385934 C41.3032407,57.0938316 40.8647793,57.3442426 40.6646233,57.4103505 L37.0291612,59.0143889 L28.4114223,62.5033116 C27.2653969,62.9129709 26.3382291,63.6324581 25.6049656,64.5592318 C25.1287651,65.161103 24.8300325,65.7084706 24.6126397,66.229047 C24.1879415,67.1798155 23.8272836,68.958106 23.5433925,71.2322371 C23.4387325,72.0706245 23.3503995,72.9297261 23.2777089,73.7715615 C23.2290436,74.3351579 23.1933363,74.8212176 23.1722674,75.1585945 L23.1257046,75.8208044 L23.8078606,75.8208073 C33.6164849,75.8648169 43.4120809,75.887218 52.9137953,75.887218 L52.9137953,76.9398496 C43.4105018,76.9398496 33.6133426,76.9174449 23.8055151,76.8734336 L22,76.8734336 L22.039612,76.3100772 L22.1255111,75.0886647 C22.1468087,74.747361 22.1831267,74.2529873 22.2325422,73.680702 C22.3063171,72.8263094 22.3959924,71.9541532 22.5024446,71.1014095 C22.7990527,68.725408 23.1742308,66.8755229 23.6501316,65.810525 C23.8963914,65.220346 24.2387778,64.5929913 24.7833219,63.9047406 C25.6314411,62.8328005 26.7142172,61.9925604 28.0390939,61.5194457 L36.6216909,58.0445367 L40.2847649,56.4302127 C40.3992043,56.391215 40.7172168,56.2095939 41.0166864,55.946557 C41.5091533,55.5140022 41.8723928,54.9487116 42.0306466,54.266006 C42.0584546,54.084244 42.0464806,53.7691956 42.0628992,53.8023597 C41.9906874,53.6652929 41.9667797,53.6211061 41.9389378,53.5743819 C41.844897,53.430618 41.7802684,53.3536627 41.4677556,52.9973097 C40.9671505,52.4275733 40.1929261,51.3405413 39.4353769,49.9599891 C38.2063191,47.7201632 37.3203968,45.2506202 36.9672403,42.6227401 C36.9269406,42.3515802 36.8898401,42.0607253 36.8495411,41.6418925 C36.6858539,39.9406683 36.6705849,38.0559703 36.9001389,36.1341156 C37.4643226,31.3126127 39.4256898,27.7339979 42.5860248,25.8164472 C42.8942683,25.6122015 43.7741587,25.1970968 44.7734668,24.8593092 C46.3658173,24.3210605 48.114801,24 49.9676232,24 C52.4144421,24 54.8084445,24.5819914 57.0530421,25.7093652 C57.4935387,25.9054134 58.0280625,26.2197644 58.6252105,26.6948854 C59.5143907,27.4023619 60.3430341,28.3198909 61.0534808,29.4738664 C62.9846322,32.6106272 63.7614364,36.9873044 62.9483718,42.7744776 C62.9232949,43.0131543 62.8565991,43.4359213 62.7529854,43.9355592 C62.5966544,44.6894062 62.3810227,45.5043237 62.0976496,46.3560403 C61.3104497,48.7220768 60.1398319,50.9789153 58.4750182,52.9900797 C58.4139615,53.0520301 58.4022867,53.0658174 58.2158301,53.2912515 C58.1672281,53.3466838 57.9793529,53.5528139 57.9948363,53.5356656 C57.930673,53.6067283 57.8824019,53.6622575 57.8406629,53.7136469 C57.7666823,53.9067577 57.7765687,54.0303002 57.8225341,54.1685262 L57.871666,54.3451162 C57.9110136,54.4624081 57.9808596,54.6437128 58.0365136,54.754905 Z" class="dibsvg-headshot-click"/>
</svg>

<svg xmlns="http://www.w3.org/2000/svg" class="dibsvg-svg dibsvg-headshot" viewBox="0 0 100 100">
    <path d="M91.898 88.476c-.163.055-.315.264-.406.631-.063.251.06.54.325.72l8.183 6.8v.561l-.12.146-1.782 2.168c-.024.024-.024.024-.089.077-.042.03-.042.03-.11.068a.56.56 0 0 1-.738-.2l-8.173-6.712a.831.831 0 0 0-.503-.222c-.39 0-.662.214-.743.617l-1.237 4.465a.633.633 0 0 1-.346.486.643.643 0 0 1-.297.071.643.643 0 0 1-.297-.071.632.632 0 0 1-.33-.41l-8.89-16.958v-.473l.501-.502 18.485 5.59a.649.649 0 0 1 .547.644c0 .361-.177.587-.495.64l-3.485 1.864zM73.233 71.2c.125.25 0 .626-.25.752h-.25c-.25 0-.5-.126-.624-.376l-1.624-4.26c-.125-.251 0-.627.375-.753.25-.125.624 0 .75.376l1.623 4.26zm3.95-.298c-.375-.125-.5-.376-.5-.752l.75-4.386c.124-.376.374-.5.749-.5.374.124.5.375.5.751l-.75 4.386c-.125.25-.375.501-.75.501zm3.882 1.64c-.125 0-.374 0-.374-.125-.25-.25-.375-.626-.125-.877l2.872-3.509c.25-.25.625-.376.874-.125.25.25.375.627.125.877l-2.872 3.509c-.125.125-.375.25-.5.25zm1.907 3.921c-.124-.376 0-.752.5-.752l4.246-1.629c.25-.125.625 0 .75.376.125.25 0 .627-.375.752l-4.246 1.629h-.25c-.25 0-.5-.125-.625-.376zm-8.537 10.103c.375.126.624.376.5.752l-.75 4.512c0 .25-.375.5-.624.5h-.125c-.375-.124-.5-.375-.5-.751l.75-4.511c.124-.376.374-.502.749-.502zM69.7 85.521c.25-.25.625-.25.875-.125.25.25.374.626.124.877l-2.872 3.509c-.125.125-.375.25-.5.25s-.25 0-.374-.125c-.25-.25-.375-.627-.125-.877l2.872-3.51zm-1.463-3.544c.125.376 0 .752-.25.752l-4.121 1.629h-.25c-.25 0-.5-.126-.624-.376-.125-.25 0-.627.374-.752l4.122-1.63c.25-.124.624 0 .75.377zm.877-7.68l-3.372-2.882c-.25-.126-.375-.627-.25-.877.25-.251.624-.376.874-.126l3.497 2.883c.25.25.375.626.125.877-.125.125-.375.25-.5.25s-.25 0-.374-.125zm-1.049 4.25c-.124 0-.124 0 0 0l-4.62-.753c-.375-.125-.5-.375-.5-.751.125-.376.375-.502.75-.502l4.495.752c.375.126.5.376.5.752 0 .25-.375.501-.625.501zM85.75 96.392l.972-3.507c.173-.866.882-1.425 1.763-1.425.418 0 .916.2 1.206.494l7.913 6.496 1.195-1.456-7.608-6.325c-.578-.386-.891-1.12-.717-1.818.17-.684.536-1.189 1.01-1.34l2.678-1.438-16.425-4.967 8.013 15.286z" class="dibsvg-headshot-head"/>
    <path d="M81.085 87.812l.5.95A49.793 49.793 0 0 1 50 100C22.386 100 0 77.614 0 50S22.386 0 50 0s50 22.386 50 50c0 12.763-4.782 24.409-12.652 33.244l-1.114-.336C94.134 74.216 98.947 62.67 98.947 50 98.947 22.967 77.033 1.053 50 1.053S1.053 22.967 1.053 50 22.967 98.947 50 98.947a48.746 48.746 0 0 0 31.085-11.135zM58.037 54.755c.158.317.386.633.7.932.346.328.776.615 1.31.848l4.668 2.116 6.927 2.784a7.561 7.561 0 0 1 .947.494 9.28 9.28 0 0 1 1.883 1.539c1.33 1.409 2.267 3.237 2.632 5.516l.027.166.566 7.746h-1.808a41.046 41.046 0 0 0-.566-.005c-.336 0-.827.001-1.566.004l-5.92.02c-4.89.016-9.673.025-14.923.025v-1.053c5.25 0 10.032-.008 14.92-.024l5.92-.02c1.516-.006 1.967-.007 2.135 0h.68l-.477-6.56c-.355-2.195-1.192-3.832-2.381-5.091a8.236 8.236 0 0 0-1.67-1.366 6.632 6.632 0 0 0-.563-.31 3.92 3.92 0 0 0-.235-.108l-6.939-2.79-4.684-2.12a5.525 5.525 0 0 1-1.604-1.047 4.413 4.413 0 0 1-.917-1.224c-.13-.259-.253-.61-.202-.51l-.057-.174a1.96 1.96 0 0 1-.076-1.048l.063-.164a2.35 2.35 0 0 1 .2-.282c.056-.068.115-.137.19-.22l.201-.221a4.01 4.01 0 0 1 .3-.347c1.532-1.86 2.638-3.996 3.385-6.238.47-1.413.73-2.664.804-3.377.783-5.572.05-9.702-1.746-12.619-.645-1.047-1.391-1.874-2.188-2.507a6.447 6.447 0 0 0-1.367-.859c-2.123-1.065-4.357-1.608-6.638-1.608-2.983 0-5.724.926-6.821 1.653-2.876 1.745-4.676 5.03-5.205 9.552a24.868 24.868 0 0 0-.048 5.283c.038.398.073.672.112.934.335 2.495 1.178 4.844 2.348 6.977.72 1.311 1.45 2.336 1.858 2.803.396.449.467.533.564.678.104.17.133.222.238.429.089.223.107.713.046 1.102a4.235 4.235 0 0 1-1.352 2.275c-.405.355-.843.605-1.043.671l-3.636 1.604-8.618 3.49c-1.146.409-2.073 1.128-2.806 2.055a6.942 6.942 0 0 0-.992 1.67c-.425.95-.786 2.73-1.07 5.003a67.583 67.583 0 0 0-.37 3.927l-.047.662h.682c9.808.044 19.604.066 29.106.066v1.053c-9.503 0-19.3-.023-29.108-.067H22l.04-.563.086-1.221a68.625 68.625 0 0 1 .377-3.987c.296-2.377.671-4.226 1.147-5.291a7.933 7.933 0 0 1 1.133-1.906c.848-1.072 1.931-1.912 3.256-2.386l8.583-3.474 3.663-1.615c.114-.039.432-.22.732-.483a3.169 3.169 0 0 0 1.014-1.681c.027-.182.015-.497.032-.464a4.922 4.922 0 0 0-.124-.228c-.094-.143-.159-.22-.471-.577-.5-.57-1.275-1.656-2.033-3.037-1.229-2.24-2.115-4.71-2.468-7.337a25.9 25.9 0 0 1-.067-6.489c.564-4.821 2.526-8.4 5.686-10.318.308-.204 1.188-.619 2.187-.957A16.207 16.207 0 0 1 49.968 24c2.446 0 4.84.582 7.085 1.71.44.195.975.51 1.572.985.89.707 1.718 1.625 2.428 2.779 1.932 3.137 2.708 7.513 1.895 13.3a13.14 13.14 0 0 1-.195 1.162 21.585 21.585 0 0 1-.655 2.42c-.788 2.366-1.958 4.623-3.623 6.634a3.858 3.858 0 0 0-.26.301c-.048.056-.236.262-.22.245a4.503 4.503 0 0 0-.154.178.604.604 0 0 0-.018.455l.049.176c.039.117.109.299.165.41z" class="dibsvg-headshot-click"/>
</svg>
